X:1
T:The Wild Horseman
C:Robert Schumann
M:6/8
L:1/8
Q:3/8=120
K:Am
|: A>A c>B A>G | A3 E3 | A>A c>B A>G | A6 |
   c>c c>B A>G | A2 G2 E2 | A>G A>B c>A | A6 :|
|: E2 A>G A>c | B3 A3 | E2 A>G A>B | A6 |
   c>B A>G E>G | A3 c3 | B>A G>E A2 | A6 :|]
